X:3
T:Minnor March. JMP.003
M:C
L:1/8
Q:1/4=100
C:â€October 7â€³
S:John Miller MS. Perth, 1799.(for the fife)
R:.March
O:Scotland
A:Perth
N:October 7 Day written at top, Key signature of G major/E minor is given
N:on the first line only. In a different handwriting
N:to the title, is â€˜A minorâ€™
N:At the end of the tune the words
N:â€™the end of the tuneâ€™ are written under the
N:stave. 6 faint notes in a different writing are
N:written after the double bar â€“ writing looks different to both title
N:and
N:â€™A minorâ€™
H:1799
Z:vmp.C. Graebe
K:A minor
E2 |â€_See Notes re key etcâ€ A2 A>A A2 B2 |\
c>de>e e2 d>e | f>ed>c d>cB>A| B2 B>B B2E2 |!
A2 A>A A2 2B2 | c>de>e e2 f>d | e>a fe/d/ c2 B2 | A2 A>A A2 :|!
|:e>f | g2 g>g g2 (4(a/g/f/e/) | f>ed>c d2 c>d |\
e2 e>e e2 (4(f/e/d/c/) | d>cB>A B2E2 |!
A>Ac>A B>Bd>B |c>ce>c d>df>d | e>a (4(g/f/e/d/) c2B2 | A2 A>A A2 ğŸ˜

